data/styles/clear/style-clear/symbols/beauty-m.svg

<svg height="24" viewBox="0 0 24 24" width="24"><g fill="none" fill-rule="evenodd"><circle cx="12" cy="12" fill="#fff" opacity=".6" r="12"/><circle cx="12" cy="12" fill="#8c5f93" r="11"/><path d="m12.4545455 9.66666667v8.40000003c0 .5152.4072727.9333333.9090909.9333333h2.7272727c.5027273 0 .9090909-.4181333.9090909-.9333333v-8.40000003zm-2.72727277 0h.90909087v-.93333334h-.90909087v-.93333333h.90909087v-.93333333h-.90909087v-.93333334h.90909087v-.93333333h-2.72727269v.93333333h.90909091v.93333334h-.90909091v.93333333h.90909091v.93333333h-.90909091v.93333334h.90909091v3.73333333h-1.81818182v4.6666667c0 .5152.40636364.9333333.90909091.9333333h2.72727269c.5018182 0 .9090909-.4181333.9090909-.9333333v-4.6666667h-1.81818177z" fill="#fff"/></g></svg>

<svg width="24" height="24" viewBox="0 0 24 24">
  <g fill="none" fill-rule="evenodd">
    <circle cx="12" cy="12" r="12" fill="#FFF" opacity=".6"/>
    <circle cx="12" cy="12" r="11" fill="#8C5F93"/>
    <path fill="#FFF" d="M12.4545455,9.66666667 L12.4545455,18.0666667 C12.4545455,18.5818667 12.8618182,19 13.3636364,19 L16.0909091,19 C16.5936364,19 17,18.5818667 17,18.0666667 L17,9.66666667 L12.4545455,9.66666667 L12.4545455,9.66666667 Z M9.72727273,9.66666667 L10.6363636,9.66666667 L10.6363636,8.73333333 L9.72727273,8.73333333 L9.72727273,7.8 L10.6363636,7.8 L10.6363636,6.86666667 L9.72727273,6.86666667 L9.72727273,5.93333333 L10.6363636,5.93333333 L10.6363636,5 L7.90909091,5 L7.90909091,5.93333333 L8.81818182,5.93333333 L8.81818182,6.86666667 L7.90909091,6.86666667 L7.90909091,7.8 L8.81818182,7.8 L8.81818182,8.73333333 L7.90909091,8.73333333 L7.90909091,9.66666667 L8.81818182,9.66666667 L8.81818182,13.4 L7,13.4 L7,18.0666667 C7,18.5818667 7.40636364,19 7.90909091,19 L10.6363636,19 C11.1381818,19 11.5454545,18.5818667 11.5454545,18.0666667 L11.5454545,13.4 L9.72727273,13.4 L9.72727273,9.66666667 L9.72727273,9.66666667 Z"/>
  </g>
</svg>
